!!!!SEGMENT: pl-wtm--r-2045_smietanski-emil-wladyslaw--valse-caprice.krn
!!!cenid: 18xx:2029
!!!COM: Śmietański, Emil Władysław
!!!COM-rismID: pe50041781
!!!CDT: 1845-1886
!!!CNT: Polish
!!!OTL: Valse Caprice
!!!PDT: 1875
!!!AGN: Secular; Waltz
!!!SMS-siglum: PL-Wtm
!!!SMS-shelfmark: R 2045
!!!SMS-shelfwork: W
!!!SMS-variant:
!!!SMS-altvar:
!!!NIFC-rismSourceID: 1001112997
!!!NIFC-islandoraID: pl-wtm:29675
!!!URL-pdf-islandora: https://repozytorium.nifc.pl/islandora/object/pl-wtm%3A29675/datastream/PDF/view
!!!URL-scan: https://polish.musicsources.pl/pl/lokalizacje/galeria/rekopisy/6536 @EN{Scan on Polish Music Sources Website} @PL{Skany w portalu Dziedzictwo Muzyki Polskiej w otwartym dostępie}
!!!ONB-nifc:
!!!OMD: Vivace.
!!!AIN: 1 empty
!!!key:
**kern	**fing	**kern	**fing	**dynam
*part1	*part1	*part1	*part1	*part1
*staff2	*staff2	*staff1	*staff1	*
*Iempty	*	*Iforte	*	*
*	*	*I"Fortepian	*	*
*>[A,B,B1,B,B2,C,A,B,B2,D,D1,D,D2,E,B,B2,C,F]	*>[A,B,B1,B,B2,C,A,B,B2,D,D1,D,D2,E,B,B2,C,F]	*>[A,B,B1,B,B2,C,A,B,B2,D,D1,D,D2,E,B,B2,C,F]	*>[A,B,B1,B,B2,C,A,B,B2,D,D1,D,D2,E,B,B2,C,F]	*>[A,B,B1,B,B2,C,A,B,B2,D,D1,D,D2,E,B,B2,C,F]
*>A	*>A	*>A	*>A	*>A
*clefF4	*	*clefG2	*	*
*k[b-]	*	*k[b-]	*	*
*F:	*	*F:	*	*
*M3/4	*	*M3/4	*	*
=1	=1	=1	=1	=1
!	!	!	!	!LO:DY:t=p.
8CCC\L	.	4ryy	.	p
8CC\J	.	.	.	.
4ryy	.	8DD</L	.	.
.	.	8CC</J	.	.
8AA\L	.	4ryy	.	.
8GG\J	.	.	.	.
=2	=2	=2	=2	=2
4ryy	.	8FF#X</L	.	.
.	.	8GG</J	.	.
8E\L	.	2ryy	.	.
8D\J	.	.	.	.
4GM</	.	.	.	.
=3	=3	=3	=3	=3
8CC\L	.	4ryy	.	.
8C\J	.	.	.	.
4ryy	.	8D</L	.	.
.	.	8C</J	.	.
8A\L	.	4ryy	.	.
8G\J	.	.	.	.
=4	=4	=4	=4	=4
4ryy	.	8F#X</L	.	.
.	.	8G</J	.	.
8e\L	.	4ryy	.	.
8d\J	.	.	.	.
4ryy	.	4gM</	.	.
=5	=5	=5	=5	=5
8C\L	.	4ryy	.	.
8c\J	.	.	.	.
4ryy	.	8d/L	.	.
.	.	8c/J	.	.
8a>\L	.	4ryy	.	.
8g>\J	.	.	.	.
=6	=6	=6	=6	=6
8c>\L	.	4ryy	.	.
8cc>\J	.	.	.	.
4ryy	.	8dd/L	.	.
.	.	8cc/J	.	.
8aa>\L	.	4ryy	.	.
8gg>\J	.	.	.	.
=7	=7	=7	=7	=7
2.ryy	.	8ddd/L	.	.
.	.	8ccc/J	.	.
*	*	*8va	*	*
.	.	8aaa\L	.	.
.	.	8ggg\J	.	.
.	.	8aaa/L	.	.
.	.	8ggg/J	.	.
*	*	*X8va	*	*
!!LO:LB:g=original
=8	=8	=8	=8	=8
*	*	*8va	*	*
2.ryy	.	8aaa\L	.	.
.	.	8ggg\J	.	.
.	.	8aaa/L	.	.
.	.	8ggg/J	.	.
.	.	8aaa\L	.	.
.	.	8ggg\J	.	.
=9	=9	=9	=9	=9
*clefG2	*	*2\right	*	*
4eee 4bb- 4cc\	.	2.gggTT\	.	.
4r	.	.	.	.
4r	.	.	.	.
=10	=10	=10	=10	=10
2r	.	2.gggTTT\	.	.
4r	.	.	.	.
.	.	16qqfff#X\LL	.	.
.	.	16qqggg\JJ	.	.
=11	=11	=11	=11	=11
2r	.	4cccc\	.	.
*	*	*X8va	*	*
.	.	4r	.	.
4r	.	4r	.	.
=12	=12	=12	=12	=12
2r	.	2r	.	.
!	!	!LO:TX:t=[segno]	!	!
!	!	!LO:TX:t=P:problem=znak [segno] nad kreską taktową	!	!
4r	.	4r	.	.
=13!|:	=13!|:	=13!|:	=13!|:	=13!|:
*>B	*>B	*>B	*>B	*>B
!LO:CL:ed	!	!	!	!
*clefF4	*	*	*	*
4a 4c 4F\	.	8aaaL 8aa\	.	p
.	.	8ggg 8gg\	.	.
4r	.	8fff 8ff\	.	.
.	.	8eee 8ee\	.	.
4r	.	8ddd 8dd\	.	.
.	.	8cccJ 8cc\	.	.
=14	=14	=14	=14	=14
4Bn 4F 4GG\	.	8bbnL 8bn\	.	.
.	.	8aa 8a\	.	.
4r	.	8gg 8g\	.	.
.	.	8ff 8f\	.	.
4r	.	8ee 8e\	.	.
.	.	8ddJ 8d\	.	.
=15	=15	=15	=15	=15
4C 4CC/	.	8ccL 8c\	.	.
.	.	8dd 8d\	.	.
!LO:N:n=2:vis=4.	!	!	!	!
4B-X 4E\	.	8ee 8e\	.	.
.	.	8ff 8f\	.	.
4C\	.	8gg 8g\	.	.
.	.	8gg#XJ 8g#X\	.	.
*clefF4	*	*	*	*
!!LO:LB:g=original
=16	=16	=16	=16	=16
4FF 4FFF/	.	8aa 8a\	.	.
.	.	8r	.	.
4f 4c\	.	8r	.	.
.	.	16r	.	.
.	.	16ccc 16cc\	.	.
4A\	.	4ccc 4cc\	.	.
=17	=17	=17	=17	=17
*	*	*Xtuplet	*	*
4A 4AA\	.	12cccL 12cc\	.	.
!	!	!LO:TX:t=P:problem=palcowanie dopisane ołówkiem	!	!
.	.	12dd\	2	.
.	.	12cc\J	1	.
4e-X 4c 4F\	.	8a\L	4	.
.	.	8f\J	2	.
4F 4FF\	.	8g\L	1	.
.	.	8a\J	3	.
=18	=18	=18	=18	=18
4B- 4BB-\	.	8bb- 8b-\	.	.
.	.	8r	.	.
.	.	8qcc/	.	.
4d 4B-\	.	8b-\L	.	.
.	.	8a\J	.	.
4F\	.	4b-\	.	.
=19	=19	=19	=19	=19
4Bn 4BBn\	.	12dddL 12dd\	.	.
.	.	12ee\	2	.
.	.	12dd\J	1	.
4f 4d 4G\	.	8bn\L	4	.
.	.	8g\J	2	.
4G 4GG\	.	8a\L	1	.
.	.	8b\J	3	.
=20	=20	=20	=20	=20
4c 4C\	.	8ccc 8cc\	.	.
.	.	8r	.	.
.	.	8qdd/	.	.
4e 4c\	.	8ccn\L	.	.
.	.	8bn\J	.	.
4B-X\	.	4cc\	.	.
=21	=21	=21	=21	=21
4AA\	.	8cccL 8cc'\	.	.
!	!	!	!	!LO:DY:rj
.	.	8ff'\	.	p
4f 4c\	.	8ddd 8dd'\	.	.
.	.	8cc'\	.	.
4F\	.	8aa 8a'\	.	.
.	.	8f'\J	.	.
=22	=22	=22	=22	=22
4BB-\	.	8ddL 8d\	.	.
.	.	8f\	.	.
4d 4B-\	.	8gg 8g\	.	.
.	.	8b-\	.	.
4G\	.	8eee 8ee\	.	.
.	.	8dd\J	.	.
=23	=23	=23	=23	=23
4AA\	.	8cccL 8cc\	.	.
.	.	8ff\	.	.
4f 4c\	.	8ddd 8dd\	.	.
.	.	8cc\	.	.
4F\	.	8aa 8a\	.	.
.	.	8f\J	.	.
!!LO:LB:g=original
=24	=24	=24	=24	=24
4BB-\	.	8dd-XL 8d-X\	.	.
.	.	8f\	.	.
4d-X 4B-\	.	8gg-X 8g-X\	.	.
.	.	8b-\	.	.
4G-X\	.	8eee-X 8ee-X\	.	.
.	.	8dd-\J	.	.
=25	=25	=25	=25	=25
4AA\	.	8cccL 8cc\	.	.
.	.	8ff\	.	.
4f 4c 4F\	.	8ddd 8dd\	.	.
.	.	8cc\	.	.
4r	.	8aa 8a\	.	.
.	.	8f\J	.	.
=26	=26	=26	=26	=26
4D-X 4BB-\	.	8ffL 8f\	.	.
.	.	8b-\	.	.
4B- 4G 4F\	.	8gg 8g\	.	.
.	.	8f\	.	.
4r	.	8dd-X 8d-X\	.	.
.	.	8B-\J	.	.
=27	=27	=27	=27	=27
!LO:TX:t=I	!	!	!	!
*>B1	*>B1	*>B1	*>B1	*>B1
8GGL 8CC/	.	4ee 4e\	.	.
8C/	.	.	.	.
8E/	.	8dd#XL 8d#X\	.	.
8G/	.	8eeJ 8e\	.	.
8B-/	.	4ccc 4cc\	.	.
8c/J	.	.	.	.
=28	=28	=28	=28	=28
8GL 8AA\	.	4eee 4ee\	.	.
8c\J	.	.	.	.
*clefG2	*below	*	*	*
!LO:TX:b:t=P:problem=palcowanie dopisane ołówkiem	!	!	!	!
8e/L	4	8ddd#XL 8dd#X\	.	.
8g/	3	8eeeJ 8ee\	.	.
8b-/	2	4cccc 4ccc\	.	.
8cc/J	1	.	.	.
=29:|!	=29:|!	=29:|!	=29:|!	=29:|!
!LO:TX:t=II	!	!	!	!
*>B2	*>B2	*>B2	*>B2	*>B2
*clefF4	*	*	*	*
8GGL 8CC/	.	4ee 4e\	.	.
8C/	.	.	.	.
8E/	4	8dd#XL 8d#X\	.	.
8G/	3	8eeJ 8e\	.	.
8B-/	2	4ccc 4cc\	.	.
8c/J	.	.	.	.
=30	=30	=30	=30	=30
4A 4C 4FF\	.	4ff 4cc 4f\	.	.
4r	.	4r	.	.
!	!	!LO:TX:b:t=[segno]	!	!
4r	.	4r	.	.
=31||	=31||	=31||	=31||	=31||
*>C	*>C	*>C	*>C	*>C
*	*	*^	*	*
8GL 8C\	5 3	8g/L	8e\L	.	.
!	!	!	!	!	!LO:DY:rj
8c\	.	8f#X/J	8d#X\J	.	f
*	*above	*	*	*	*
!	!	!LO:TX:b:i:t=energico.	!	!	!
8B-X\	2	2g/	2e\	.	.
8G\	3	.	.	.	.
8E\	1	.	.	.	.
8C\J	.	.	.	.	.
!!LO:LB:g=original
=32	=32	=32	=32	=32	=32
8CL 8FF\	.	8a-X/L	8f\L	.	.
8F\	.	8g/J	8e\J	.	.
8D\	2	2a-/	2f\	.	.
8C\	3	.	.	.	.
8AA-X\	1	.	.	.	.
8FF\J	.	.	.	.	.
=33	=33	=33	=33	=33	=33
8DDL 8GGG/	.	2.g/	8Bn\L	.	.
8GG/	.	.	8G\	.	.
*	*below	*	*	*	*
8BBn/	4	.	8G\	.	.
8D/	3	.	8B\	.	.
8F/	.	.	8e\	.	.
8G/J	.	.	8d\J	.	.
*	*	*v	*v	*	*
=34	=34	=34	=34	=34
8GGL 8CC/	.	8eL 8c/	.	.
8C/	5	8f#XJ 8d#X/	.	.
8E/	4	4g 4e/	.	.
8G/	3	.	.	.
8Bn/	.	4g 4e/	.	.
8c/J	.	.	.	.
=35	=35	=35	=35	=35
*	*above	*	*	*
8cL 8F\	3	8aL 8f/	3	.
8f\	.	8bnJ 8g#X/	.	.
8e-X\	.	2cc 2a/	.	.
8c\	3	.	.	.
8A\	1	.	.	.
8F\J	.	.	.	.
=36	=36	=36	=36	=36
*	*	*^	*	*
8FL 8BB-\	.	8dd-X/L	8b-\L	.	.
8B-\	.	8cc/J	8a\J	.	.
8G\	.	2dd-/	2b-\	.	.
8F\	3	.	.	.	.
8D-X\	1	.	.	.	.
8BB-\J	.	.	.	.	.
=37	=37	=37	=37	=37	=37
8GGL 8CC/	.	2.cc/	8e\L	.	.
8C/	.	.	8c\	.	.
*	*below	*	*	*	*
8E/	4	.	8c\	.	.
8G/	3	.	8e\	.	.
8B-/	.	.	8a\	.	.
8c/J	.	.	8g\J	.	.
*	*	*v	*v	*	*
=38	=38	=38	=38	=38
8CL 8FF/	.	8aL 8f/	.	.
8F/	.	8bnJ 8g#X/	.	.
8A/	4	4cc 4a/	.	.
8c/	3	.	.	.
8e/	.	4cc 4a/	.	.
8f/J	.	.	.	.
=39	=39	=39	=39	=39
4BB- 4BBB-/	.	8ddL 8b-\	.	.
.	.	8f\	.	p
4d 4B-\	.	8f\	.	.
!	!	!LO:TX:b:i:t=scherzando	!	!
.	.	8ff 8dd\	.	.
4F\	.	8ff 8dd\	.	.
.	.	8f\J	.	.
!!LO:LB:g=original
=40	=40	=40	=40	=40
4BB-\	.	8ddL 8b-\	.	.
.	.	8d\	.	.
4B- 4F\	.	8d\	.	.
.	.	8b- 8f\	.	.
4D\	.	8b- 8f\	.	.
.	.	8d\J	.	.
=41	=41	=41	=41	=41
4FF 4FFF\	.	8aL 8e-X\	.	.
.	.	8b-\	.	.
4e-X\	.	8a\	.	.
.	.	8dd\	.	.
4F\	.	8dd\	.	.
.	.	8a\J	.	.
=42	=42	=42	=42	=42
4BB- 4BBB-\	.	8b-L 8d\	1 4	.
.	.	8B-\	2	.
4B-\	.	8d\	.	.
.	.	8f\	.	.
4F\	.	8b-\	.	.
.	.	8dd\J	5	.
*clefF4	*	*	*	*
=43	=43	=43	=43	=43
4BB-\	.	8b-\L	.	.
.	.	8dd-X\	.	.
*clefG2	*	*	*	*
4dd-X 4b-/	.	8ff\	.	.
.	.	8fff 8ddd-X\	.	.
4f/	.	8fff 8ddd-\	.	.
.	.	8ff\J	.	.
=44	=44	=44	=44	=44
4B-/	.	8ddd-XL 8bb-\	.	.
.	.	8dd-X\	.	.
4b- 4f/	.	8dd-\	.	.
.	.	8bb- 8ff\	.	.
4d-X/	.	8bb- 8ff\	.	.
.	.	8dd-\J	.	.
=45	=45	=45	=45	=45
4F/	.	8aaL 8ee-X\	.	.
.	.	8bb-\	.	.
4cc 4f/	.	8aa\	.	.
.	.	8ddd-X\	.	.
4e-X/	.	8ddd-\	.	.
.	.	8aa\J	.	.
=46	=46	=46	=46	=46
4b- 4f 4d-X/	.	8bb-L 8ff\	.	.
.	.	8ccc\	.	.
4r	.	8bb-\	1	.
.	.	8aa-X\	4	.
4bn 4f 4d-X/	.	8gg\	3 5	.
.	.	8ff\J	2	.
=47	=47	=47	=47	=47
*	*above	*	*	*
8gL 8c/	3	4ee\	.	.
8cc/	.	.	.	f
8a-X/	.	4ccc 4ee\	.	.
*	*below	*	*	*
8g/	3	.	.	.
8e/	1	4gg 4ee\	.	.
8c/J	.	.	.	.
!!LO:LB:g=original
*clefF4	*	*	*	*
=48	=48	=48	=48	=48
*2\right	*	*	*	*
2d-X 2D-X\	.	8ff\L	.	.
.	.	8an\	.	.
.	.	8b-\	.	.
.	.	8a-X\	.	.
4d- 4D-\	.	8bn 8g\	.	.
.	.	8f\J	.	.
*clefF4	*	*	*	*
=49	=49	=49	=49	=49
8GL 8C\	.	4e\	.	.
8c\	.	.	.	.
8A-X\	.	4cc 4e\	.	.
*	*above	*	*	*
8G\	3	.	.	.
8E\	1	4g 4e\	.	.
8C\J	.	.	.	.
*	*	*clefF4	*	*
=50	=50	=50	=50	=50
2D-X 2DD-X\	.	8f\L	.	.
.	.	8An\	.	.
.	.	8B-\	.	.
.	.	8A-X\	.	.
4D- 4DD-\	.	8Bn 8G\	.	.
.	.	8F\J	.	.
=51	=51	=51	=51	=51
8GGL 8CC/	.	4E/	.	.
8C/	.	.	.	.
8AAn/	.	4c 4E/	.	.
8GG/	.	.	.	.
8EE/	.	4G 4E/	.	.
8CC/J	.	.	.	.
=52	=52	=52	=52	=52
4BB- 4CC/	.	8GL 8E 8C/	.	.
!	!	!	!	!LO:DY:rj:t=f.
.	.	8c/J	.	f
!	!	!LO:TX:b:t=ms	!	!
8A>\L	.	2ryy	.	.
8G>\	.	.	.	.
8E>\	.	.	.	.
8C>\J	.	.	.	.
=53	=53	=53	=53	=53
*	*	*clefG2	*	*
4B- 4C\	.	8gL 8e 8c/	.	.
.	.	8cc/J	.	.
!	!	!LO:TX:b:t=ms	!	!
8a>\L	.	2ryy	.	.
8g>\	.	.	.	.
8f>\	.	.	.	.
8c>\J	.	.	.	.
*clefG2	*	*	*	*
=54	=54	=54	=54	=54
4b- 4c/	.	8ggL 8ee 8cc/	.	.
.	.	8ccc/J	.	.
!	!	!LO:TX:b:t=ms.	!	!
8aa>\L	.	4ryy	.	.
8gg>\	.	.	.	.
8ee>\	.	4ryy	.	.
!	!	!LO:TX:a:t=[segno][segno]	!	!
!	!	!LO:TX:b:t=Da capo la\nprima parte\nsenza repeti\nZione al segno	!	!
8cc>\J	.	.	.	.
!!LO:PB:g=original
*clefF4	*	*	*	*
=55||	=55||	=55||	=55||	=55||
*>D	*>D	*>D	*>D	*>D
*k[b-e-a-d-g-]	*	*k[b-e-a-d-g-]	*	*
4F 4DD-\	.	4ff 4a- 4f\	.	.
!	!	!	!	!LO:DY:rj:t=mf.
4d-\	.	4.a- 4.f\	.	mf
4A-\	.	.	.	.
.	.	8ff 8a- 8f\	.	.
=56	=56	=56	=56	=56
*	*	*2\left	*	*
4F\	.	2.ff 2.a- 2.f\	.	.
4D-\	.	.	.	.
4AA-\	.	.	.	.
=57	=57	=57	=57	=57
4GG- 4GGG-/	.	4ff 4b- 4f\	.	.
4B-\	.	4.ee- 4.b- 4.e-\	.	.
4G-\	.	.	.	.
.	.	8ff 8b- 8f\	.	.
=58	=58	=58	=58	=58
*	*	*2\right	*	*
4E-\	.	2.gg- 2.b- 2.g-\	.	.
4BB-\	.	.	.	.
4GG-\	.	.	.	.
=59	=59	=59	=59	=59
4AA- 4AAA-/	.	4ee- 4cc 4g-\	.	.
4c\	.	8gg-L 8g-'\	.	.
.	.	8ee- 8g-'\	.	.
4A-\	.	8ddn 8g-'\	.	.
.	.	8ee-J 8g-'\	.	.
=60	=60	=60	=60	=60
4E-\	.	8gg-L 8g-'\	.	.
.	.	8ff 8g-'\	.	.
4C\	.	8ee- 8g-'\	.	.
.	.	8dd- 8g-'\	.	.
4AA-\	.	8cc 8g-'\	.	.
.	.	8ee-J 8g-'\	.	.
=61	=61	=61	=61	=61
4D- 4DD-\	.	8dd-L 8f\	.	.
.	.	8ff\	.	.
4d- 4A- 4F\	.	8dd-\	.	.
.	.	8b-\	.	.
4r	.	8a-\	.	.
.	.	8f\J	.	.
=62	=62	=62	=62	=62
!	!	!LO:N:vis=1	!	!
8d-\L	.	2rb	.	.
8B-\	.	.	.	.
8A-\	.	.	.	.
8F\	.	.	.	.
8D-\	.	4r	.	.
8BB-\J	.	.	.	.
!!LO:LB:g=original
=63	=63	=63	=63	=63
4AA-\	.	8ee-L 8cc'\	.	.
!	!	!	!	!LO:DY:rj:t=p.
.	.	8ff 8cc'\	.	p
4a- 4e- 4c\	.	8ggn 8cc'\	.	.
.	.	8aa- 8cc'\	.	.
4a- 4e- 4c\	.	8ee- 8cc'\	.	.
.	.	8ffJ 8cc'\	.	.
=64	=64	=64	=64	=64
4C\	.	8ggnL 8cc\	.	.
.	.	8aa- 8cc\	.	.
4a- 4e- 4c\	.	8ee- 8cc\	.	.
.	.	8ff 8cc\	.	.
4a- 4e- 4c\	.	8gg 8cc\	.	.
.	.	8aa-J 8cc\	.	.
=65	=65	=65	=65	=65
4D-\	.	8eenL 8dd-\	.	.
.	.	8ff\	.	.
*clefG2	*	*	*	*
4b- 4f 4d-/	.	8bb- 8ff\	.	.
.	.	8ddd-\	.	.
4b- 4f 4d-/	.	8fff 8ff\	.	.
.	.	8eeen\J	.	.
*clefF4	*	*	*	*
=66	=66	=66	=66	=66
4BB-\	.	8gggnL 8ff\	.	.
.	.	8fff\	4	.
*clefG2	*	*	*	*
4b- 4f 4d-/	.	8ddd-\	.	.
.	.	8bb-\	.	.
4b- 4f 4d-/	.	8ggn\	1	.
.	.	8ff\J	4	.
*clefF4	*	*	*	*
=67	=67	=67	=67	=67
4E- 4EE-\	.	8ee-L 8dd-\	1 3	.
.	.	8ee-\	3	.
4gn 4e- 4B-\	.	8ddn\	2	.
.	.	8ee-\	1	.
4g 4e- 4B-\	.	8eee-\	.	.
.	.	8ee-\J	.	.
=68	=68	=68	=68	=68
4G-\	.	8ee-L 8dd-\	1 2	.
.	.	8een\	3	.
4gn 4e- 4B-\	.	8ff 8dd-\	1 2	.
.	.	8ddd-\	.	.
4E-\	.	8ggn 8dd-\	.	.
.	.	8bb-\J	.	.
=69	=69	=69	=69	=69
4AA- 4AAA-\	.	8aa-L 8cc\	.	.
.	.	8ee-\	.	.
4a- 4e- 4c 4A-\	.	8aa- 8cc\	.	.
.	.	8ccc\	.	.
4a- 4e- 4c 4A-\	.	8aa- 8cc\	.	.
.	.	8ccc\J	.	.
!!LO:LB:g=original
=70	=70	=70	=70	=70
!LO:TX:t=I	!	!	!	!
*>D1	*>D1	*>D1	*>D1	*>D1
4a- 4e- 4c 4A-\	.	4aa- 4cc\	.	.
4r	.	4r	.	.
4r	.	4a-\	.	.
=71:|!	=71:|!	=71:|!	=71:|!	=71:|!
!LO:TX:t=II	!	!	!	!
*>D2	*>D2	*>D2	*>D2	*>D2
4a- 4e- 4c 4A-\	.	4aa- 4cc\	.	.
4r	.	4r	.	.
4r	.	4gg-\	.	.
=72	=72	=72	=72	=72
*>E	*>E	*>E	*>E	*>E
!	!	!LO:TX:b:t=P:problem=forte dopisane ołówkiem	!	!
4AA-\	.	8ffL 8ddn 8b-\	.	.
.	.	8ffJ 8dd 8b-\	.	.
4f 4dn 4B-\	.	4.ff 4.dd 4.b-\	.	.
4A-\	.	.	.	.
.	.	8bb-\	.	.
=73	=73	=73	=73	=73
4FF\	.	4.bb- 4.dd- 4.b-\	.	.
4dn 4B-\	.	.	.	.
.	.	8b- 8a-\	.	.
4F\	.	4b- 4a-\	.	.
=74	=74	=74	=74	=74
!	!	!LO:TX:b:t=P:problem=p dopisane ołówkiem	!	!
4GG-\	.	8b-L 8g- 8e-\	.	.
.	.	8b- 8g- 8e-\	.	.
4B-\	.	8b- 8g- 8e-\	.	.
.	.	8ee-\	.	.
4G-\	.	8ddn 8b-\	.	.
.	.	8ee-\J	.	.
=75	=75	=75	=75	=75
4EE-\	.	8gg-L 8b- 8g-\	.	.
.	.	8gg- 8b- 8g-\	.	.
4e- 4B-\	.	8gg- 8b- 8g-\	.	.
.	.	8gg- 8b- 8g-\	.	.
4G-\	.	8ff 8b- 8g-\	.	.
.	.	8ee-J 8b- 8g-\	.	.
=76	=76	=76	=76	=76
4AA-\	.	8ee-L 8cc-X\	1 3	.
.	.	8ee- 8cc-\	.	.
4f 4e- 4c-X\	.	8ee- 8cc-\	.	.
.	.	8ee- 8cc-\	.	.
4A-\	.	8ccc-X\	.	.
.	.	8ee-J 8cc-\	.	.
!!LO:LB:g=original
=77	=77	=77	=77	=77
4BBB-/	.	8ddnL 8b-\	.	.
.	.	8dd 8b-\	.	.
4f 4dn 4B-\	.	8dd 8b-\	.	.
.	.	8dd 8b-\	.	.
4A-\	.	8bb-\	.	.
.	.	8ddJ 8b-\	.	.
=78	=78	=78	=78	=78
4EE-/	.	40%3ee-LL 40%3g-\	.	.
.	.	40%3e-\	.	.
.	.	40%3g-\	.	.
.	.	40%3b-\	.	.
4e- 4B- 4G- 4E-\	.	.	.	.
.	.	40%3ee-\	.	.
.	.	40%3gg-\	.	.
.	.	40%3bb-\	.	.
4e- 4B- 4G- 4E-\	.	.	.	.
*	*	*8va	*	*
.	.	40%3eee-\	.	.
.	.	40%3ggg-\	.	.
.	.	40%3bbb-\JJ	.	.
=79	=79	=79	=79	=79
4e- 4B- 4G- 4E-\	.	4eeee-\	.	.
*	*	*X8va	*	*
8E-L 8EE-/	.	4r	.	.
8D- 8DD-/	.	.	.	.
8C 8CC/	.	4r	.	.
8BB-J 8BBB-/	.	.	.	.
=80	=80	=80	=80	=80
4AA- 4BBB-/	.	8ee-L 8cc 8a-\	.	.
!	!	!	!	!LO:DY:rj:t=f.
.	.	8ee-J 8cc 8a-\	.	f
4c 4A-\	.	4.ee- 4.cc 4.a-\	.	.
4G-\	.	.	.	.
.	.	8aa-\	.	.
=81	=81	=81	=81	=81
4AA-\	.	4.aa- 4.cc 4.a-\	.	.
4c 4A-\	.	.	.	.
.	.	8a- 8g-\	.	.
4E-\	.	4a- 4g-\	.	.
=82	=82	=82	=82	=82
4DD-\	.	8a-L 8f\	.	.
.	.	8a- 8f\	.	.
4d- 4A-\	.	8a- 8f\	.	.
.	.	8dd-\	.	.
4F\	.	8cc 8a-\	.	.
.	.	8dd-\J	.	.
=83	=83	=83	=83	=83
4FF\	.	8ffL 8a-\	.	.
.	.	8ff 8a-\	.	.
4d- 4A-\	.	8ff 8a-\	.	.
.	.	8ff 8a-\	.	.
4F\	.	8ee- 8a-\	.	.
.	.	8dd-J 8a-\	.	.
!!LO:LB:g=original
=84	=84	=84	=84	=84
4EE-\	.	8ff-XL 8gn\	.	.
.	.	8ff- 8g\	.	.
4d- 4B- 4E-\	.	8ff- 8g\	.	.
.	.	8ff- 8g\	.	.
4d- 4B- 4E-\	.	8bb-\	.	.
.	.	8ff-J 8g\	.	.
=85	=85	=85	=85	=85
2.d- 2.B- 2.C\	.	8ee-L 8gn\	.	.
.	.	8ee- 8g\	.	.
.	.	8ee- 8g\	.	.
.	.	8ggn\	.	.
.	.	8dd- 8g\	.	.
.	.	8gg\J	.	.
=86	=86	=86	=86	=86
*tremolo	*	*	*	*
32AA-\LLL	.	4aa- 4cc 4a-\	.	.
32A-\	.	.	.	.
32AA-\	.	.	.	.
32A-\	.	.	.	.
32AA-\	.	.	.	.
32A-\	.	.	.	.
32AA-\	.	.	.	.
32A-\	.	.	.	.
!	!	!LO:TX:Bi:t=cresc poco a poco:problem=dynamics with extention lines	!	!LO:HP:t=cresc poco a poco
32AA-\	.	4.cc 4.a-\	.	<
32A-\	.	.	.	.
32AA-\	.	.	.	.
32A-\	.	.	.	.
32AA-\	.	.	.	.
32A-\	.	.	.	.
32AA-\	.	.	.	.
32A-\	.	.	.	.
32AA-\	.	.	.	.
32A-\	.	.	.	.
32AA-\	.	.	.	.
32A-\	.	.	.	.
32AA-\	.	8aa- 8cc 8a-\	.	.
32A-\	.	.	.	.
32AA-\	.	.	.	.
32A-\JJJ	.	.	.	.
=87	=87	=87	=87	=87
*rep	*	*	*	*
32AA-\LLL	.	2.aa- 2.cc 2.a-\	.	.
32A-\	.	.	.	.
32AA-\	.	.	.	.
32A-\	.	.	.	.
32AA-\	.	.	.	.
32A-\	.	.	.	.
32AA-\	.	.	.	.
32A-\	.	.	.	.
32AA-\	.	.	.	.
32A-\	.	.	.	.
32AA-\	.	.	.	.
32A-\	.	.	.	.
32AA-\	.	.	.	.
32A-\	.	.	.	.
32AA-\	.	.	.	.
32A-\	.	.	.	.
32AA-\	.	.	.	.
32A-\	.	.	.	.
32AA-\	.	.	.	.
32A-\	.	.	.	.
32AA-\	.	.	.	.
32A-\	.	.	.	.
32AA-\	.	.	.	.
32A-\JJJ	.	.	.	.
*Xrep	*	*	*	*
=88	=88	=88	=88	=88
32BB--X\LLL	.	4aa- 4dd- 4a-\	.	.
32B--\	.	.	.	.
32BB--\	.	.	.	.
32B--\	.	.	.	.
32BB--\	.	.	.	.
32B--\	.	.	.	.
32BB--\	.	.	.	.
32B--\	.	.	.	.
32BB--\	.	4.gg- 4.dd- 4.g-\	.	.
32B--\	.	.	.	.
32BB--\	.	.	.	.
32B--\	.	.	.	.
32BB--\	.	.	.	.
32B--\	.	.	.	.
32BB--\	.	.	.	.
32B--\	.	.	.	.
32BB--\	.	.	.	.
32B--\	.	.	.	.
32BB--\	.	.	.	.
32B--\	.	.	.	.
32BB--\	.	8ff-X 8f-X\	.	[[
32B--\	.	.	.	.
32BB--\	.	.	.	.
32B--X\JJJ	.	.	.	.
=89	=89	=89	=89	=89
32EE-\LLL	.	2.ee- 2.gn 2.d-\	.	.
32E-\	.	.	.	.
32EE-\	.	.	.	.
32E-\	.	.	.	.
32EE-\	.	.	.	.
32E-\	.	.	.	.
32EE-\	.	.	.	.
32E-\	.	.	.	.
32EE-\	.	.	.	.
32E-\	.	.	.	.
32EE-\	.	.	.	.
32E-\	.	.	.	.
32EE-\	.	.	.	.
32E-\	.	.	.	.
32EE-\	.	.	.	.
32E-\	.	.	.	.
32EE-\	.	.	.	.
32E-\	.	.	.	.
32EE-\	.	.	.	.
32E-\	.	.	.	.
32EE-\	.	.	.	.
32E-\	.	.	.	.
32EE-\	.	.	.	.
32E-\JJJ	.	.	.	.
=90	=90	=90	=90	=90
32AAA-/LLL	.	4a- 4c 4A-/	.	.
32AA-/	.	.	.	.
32AAA-/	.	.	.	.
32AA-/	.	.	.	.
32AAA-/	.	.	.	.
32AA-/	.	.	.	.
32AAA-/	.	.	.	.
32AA-/	.	.	.	.
32AAA-/	.	4.c 4.A-/	.	.
32AA-/	.	.	.	.
32AAA-/	.	.	.	.
32AA-/	.	.	.	.
32AAA-/	.	.	.	.
32AA-/	.	.	.	.
32AAA-/	.	.	.	.
32AA-/	.	.	.	.
32AAA-/	.	.	.	.
32AA-/	.	.	.	.
32AAA-/	.	.	.	.
32AA-/	.	.	.	.
32AAA-/	.	8a- 8c 8A-/	.	.
32AA-/	.	.	.	.
32AAA-/	.	.	.	.
32AA-/JJJ	.	.	.	.
!!LO:LB:g=original
=91	=91	=91	=91	=91
32AAA-/LLL	.	2.a- 2.c 2.A-/	.	.
32AA-/	.	.	.	.
32AAA-/	.	.	.	.
32AA-/	.	.	.	.
32AAA-/	.	.	.	.
32AA-/	.	.	.	.
32AAA-/	.	.	.	.
32AA-/	.	.	.	.
32AAA-/	.	.	.	.
32AA-/	.	.	.	.
32AAA-/	.	.	.	.
32AA-/	.	.	.	.
32AAA-/	.	.	.	.
32AA-/	.	.	.	.
32AAA-/	.	.	.	.
32AA-/	.	.	.	.
32AAA-/	.	.	.	.
32AA-/	.	.	.	.
32AAA-/	.	.	.	.
32AA-/	.	.	.	.
32AAA-/	.	.	.	.
32AA-/	.	.	.	.
32AAA-/	.	.	.	.
32AA-/JJJ	.	.	.	.
=92	=92	=92	=92	=92
!LO:TX:t=P:problem=mixed beam	!	!	!	!
32BBB--/LLL	.	4a- 4d- 4A-/	.	.
32BB--\	.	.	.	.
32BBB--/	.	.	.	.
32BB--\	.	.	.	.
32BBB--/	.	.	.	.
32BB--\	.	.	.	.
32BBB--/	.	.	.	.
32BB--\	.	.	.	.
32BBB--/	.	4.g- 4.d- 4.G-/	.	.
32BB--\	.	.	.	.
32BBB--/	.	.	.	.
32BB--\	.	.	.	.
32BBB--/	.	.	.	.
32BB--\	.	.	.	.
32BBB--/	.	.	.	.
32BB--\	.	.	.	.
32BBB--/	.	.	.	.
32BB--\	.	.	.	.
32BBB--/	.	.	.	.
32BB--\	.	.	.	.
32BBB--/	.	8f-X< 8F-X</	.	.
32BB--\	.	.	.	.
32BBB--/	.	.	.	.
32BB--X\JJJ	.	.	.	.
=93	=93	=93	=93	=93
32EEE-\LLL	.	2.e-< 2.Gn< 2.D-</	.	.
32EE-\	.	.	.	.
32EEE-\	.	.	.	.
32EE-\	.	.	.	.
32EEE-\	.	.	.	.
32EE-\	.	.	.	.
32EEE-\	.	.	.	.
32EE-\	.	.	.	.
32EEE-\	.	.	.	.
32EE-\	.	.	.	.
32EEE-\	.	.	.	.
32EE-\	.	.	.	.
32EEE-\	.	.	.	.
32EE-\	.	.	.	.
32EEE-\	.	.	.	.
32EE-\	.	.	.	.
32EEE-\	.	.	.	.
32EE-\	.	.	.	.
32EEE-\	.	.	.	.
32EE-\	.	.	.	.
32EEE-\	.	.	.	.
32EE-\	.	.	.	.
32EEE-\	.	.	.	.
32EE-\JJJ	.	.	.	.
*Xtremolo	*	*	*	*
=94	=94	=94	=94	=94
*	*	*tremolo	*	*
4AAA-/	.	32A-/LLL	.	>
.	.	32a-/	.	.
.	.	32A-/	.	.
.	.	32a-/	.	.
.	.	32A-/	.	.
.	.	32a-/	.	.
.	.	32A-/	.	.
.	.	32a-/	.	.
4.C 4.AA-/	.	32A-/	.	.
.	.	32a-/	.	.
.	.	32A-/	.	.
.	.	32a-/	.	.
.	.	32A-/	.	.
.	.	32a-/	.	.
.	.	32A-/	.	.
.	.	32a-/	.	.
.	.	32A-/	.	.
.	.	32a-/	.	.
.	.	32A-/	.	.
.	.	32a-/	.	.
8D- 8BB-/	.	32A-/	.	.
.	.	32a-/	.	.
.	.	32A-/	.	.
.	.	32a-/JJJ	.	.
=95	=95	=95	=95	=95
*	*	*rep	*	*
4D- 4BB-/	.	32A-/LLL	.	.
.	.	32a-/	.	.
.	.	32A-/	.	.
.	.	32a-/	.	.
.	.	32A-/	.	.
.	.	32a-/	.	.
.	.	32A-/	.	.
.	.	32a-/	.	.
4.Dn 4.BBn/	.	32A-/	.	.
.	.	32a-/	.	.
.	.	32A-/	.	.
.	.	32a-/	.	.
.	.	32A-/	.	.
.	.	32a-/	.	.
.	.	32A-/	.	.
.	.	32a-/	.	.
.	.	32A-/	.	.
.	.	32a-/	.	.
.	.	32A-/	.	.
.	.	32a-/	.	.
8E- 8C/	.	32A-/	.	.
.	.	32a-/	.	.
.	.	32A-/	.	.
.	.	32a-/JJJ	.	.
*	*	*Xrep	*	*
=96	=96	=96	=96	=96
4AA-\	.	32a-\LLL	.	.
.	.	32aa-\	.	]
.	.	32a-\	.	.
.	.	32aa-\	.	.
.	.	32a-\	.	.
.	.	32aa-\	.	.
.	.	32a-\	.	.
.	.	32aa-\	.	.
4.c 4.E-\	.	32a-\	.	.
.	.	32aa-\	.	.
.	.	32a-\	.	.
.	.	32aa-\	.	.
.	.	32a-\	.	.
.	.	32aa-\	.	.
!	!	!	!	!LO:HP:t=dim.
.	.	32a-\	.	>
.	.	32aa-\	.	.
.	.	32a-\	.	.
.	.	32aa-\	.	.
.	.	32a-\	.	.
.	.	32aa-\	.	.
8d- 8F-X\	.	32a-\	.	.
.	.	32aa-\	.	.
.	.	32a-\	.	.
.	.	32aa-\JJJ	.	.
=97	=97	=97	=97	=97
*	*	*rep	*	*
4d- 4F-X\	.	32a-\LLL	.	.
.	.	32aa-\	.	.
.	.	32a-\	.	.
.	.	32aa-\	.	.
.	.	32a-\	.	.
.	.	32aa-\	.	.
.	.	32a-\	.	.
.	.	32aa-\	.	.
4.dn 4.Fn\	.	32a-\	.	.
.	.	32aa-\	.	.
.	.	32a-\	.	.
.	.	32aa-\	.	.
.	.	32a-\	.	.
.	.	32aa-\	.	.
.	.	32a-\	.	.
.	.	32aa-\	.	.
.	.	32a-\	.	.
.	.	32aa-\	.	.
.	.	32a-\	.	.
.	.	32aa-\	.	.
8e- 8G-\	.	32a-\	.	.
.	.	32aa-\	.	.
.	.	32a-\	.	.
.	.	32aa-\JJJ	.	.
*	*	*Xrep	*	*
*	*	*Xtremolo	*	*
=98	=98	=98	=98	=98
4F 4DD-\	.	4ff 4a- 4f\	.	.
!	!	!	!	!LO:DY:rj
4d-\	.	4.a- 4.f\	.	p
4A-\	.	.	.	.
.	.	8ff 8a- 8f\	.	.
!!LO:LB:g=original
=99	=99	=99	=99	=99
4F\	.	2.ff 2.a- 2.f\	.	.
4D-\	.	.	.	.
4AA-\	.	.	.	.
=100	=100	=100	=100	=100
4GG- 4GGG-\	.	4ff 4b- 4f\	.	.
4B-\	.	4.ee- 4.b- 4.e-\	.	.
4G-\	.	.	.	.
.	.	8ff 8b- 8f\	.	.
=101	=101	=101	=101	=101
4E-\	.	2.gg- 2.b- 2.g-\	.	.
4BB-\	.	.	.	.
4GG-\	.	.	.	.
=102	=102	=102	=102	=102
4AA- 4AAA-/	.	4ee- 4cc 4g-\	.	.
4c\	.	8ffL 8g-\	.	.
.	.	8ee- 8g-\	.	.
4A-\	.	8ddn 8g-\	.	.
.	.	8ee-J 8g-\	.	.
=103	=103	=103	=103	=103
4E-\	.	8gg-L 8g-\	.	.
.	.	8ff 8g-\	.	.
4C\	.	8ee- 8g-\	.	.
.	.	8dd- 8g-\	.	.
4AA-\	.	8cc 8g-\	.	.
.	.	8ee-J 8g-\	.	.
=104	=104	=104	=104	=104
4DD-\	.	8dd-L 8f\	.	.
.	.	8ff\	.	.
4d- 4A- 4F\	.	8dd-\	.	.
.	.	8b-\	.	.
4r	.	8a-\	.	.
.	.	8f\J	.	.
=105	=105	=105	=105	=105
8d-\L	.	2r	.	.
8B-\	.	.	.	.
8A-\	.	.	.	.
8F\	.	.	.	.
8D-\	.	4r	.	.
8AA-\J	.	.	.	.
=106	=106	=106	=106	=106
!	!	!LO:TX:Bi:t=poco cresc:problem=dynamics with extention lines	!	!LO:HP:t=poco cresc
4GG-\	.	4bb- 4dd- 4b-\	.	<
4g-\	.	4.dd- 4.b-\	.	.
4d-\	.	.	.	.
.	.	8bb- 8dd- 8b-\	.	[[
!!LO:PB:g=original
=107	=107	=107	=107	=107
4B-\	.	2.bb- 2.dd- 2.b-\	.	.
4G-\	.	.	.	.
4D-\	.	.	.	.
=108	=108	=108	=108	=108
4FF\	.	4bb- 4ddn 4b-\	.	.
4dn\	.	4.ccc-X 4.dd 4.cc-X\	.	.
4c-X\	.	.	.	.
.	.	8dd 8cc- 8dn\	.	.
=109	=109	=109	=109	=109
4A-\	.	2.ddn 2.cc-X 2.dn\	.	.
4F\	.	.	.	.
4Dn\	.	.	.	.
=110	=110	=110	=110	=110
4BBB-/	.	4r	.	.
4f 4c-X 4A-\	.	8ffL 8ddn\	.	.
.	.	8ff\	.	.
4f 4c- 4A-\	.	8een\	.	.
.	.	8ff\J	.	.
=111	=111	=111	=111	=111
*2\left	*	*	*	*
2.f 2.B- 2.A-\	.	8aa-L 8ddn\	.	.
.	.	8gg-\	.	.
.	.	8ff\	.	.
.	.	8ee-\	.	.
.	.	8dd\	.	.
.	.	8ff\J	.	.
=112	=112	=112	=112	=112
4BB- 4EE-\	.	8ee-\L	.	.
.	.	8eee-\	.	.
4g- 4e- 4B- 4G-\	.	8ccc\	.	.
.	.	8bb-\	.	.
4g- 4e- 4B- 4G-\	.	8gg-\	.	.
.	.	8ee-\J	.	.
=113	=113	=113	=113	=113
*2\right	*	*	*	*
2g- 2e- 2B- 2G-\	.	8cc\L	.	.
.	.	8b-\	.	.
.	.	8g-\	.	.
.	.	8e-\J	.	.
8c\L	.	4r	.	.
8B-\J	.	.	.	.
=114	=114	=114	=114	=114
!	!	!LO:TX:t=P:problem=obiegnik dopisany ołówkiem	!	!LO:DY:rj
4A- 4AA-\	.	8aa-L 8ff\	.	p
!	!	!LO:TX:b:i:t=scherzando	!	!
.	.	8bb- 8ff\	.	.
*clefG2	*	*	*	*
4dd- 4f 4d-\	.	8ccc 8ff\	.	.
.	.	8ddd- 8ff\	.	.
4dd- 4f 4d-\	.	8aa- 8ff\	.	.
.	.	8bb-J 8ff\	.	.
!!LO:LB:g=original
=115	=115	=115	=115	=115
*	*below	*	*	*
4A-/	4	8cccL 8ff\	.	.
.	.	8ddd- 8ff\	.	.
4dd- 4f 4d-/	4	8aa- 8ff\	.	.
.	.	8bb- 8ff\	.	.
4dd- 4f 4d-/	.	8ccc 8ff\	.	.
.	.	8ddd-J 8ff\	.	.
=116	=116	=116	=116	=116
4G-/	.	8b-\L	.	.
.	.	8ddn\	.	.
4g- 4e- 4B-/	.	8ee-\	.	.
.	.	8gg-\	.	.
4g- 4e- 4B-/	.	8bb- 8b-\	.	.
.	.	8aan\J	.	.
*clefF4	*	*	*	*
=117	=117	=117	=117	=117
.	.	8qb-/	.	.
4E-\	.	8ccc\L	.	.
.	.	8bb-\	.	.
4g- 4e- 4B-\	.	8gg-\	.	.
.	.	8ee-\	.	.
4g- 4e- 4B-\	.	8cc\	.	.
.	.	8b-\J	1	.
=118	=118	=118	=118	=118
4AA- 4AAA-/	.	8a-L 8f\	3	.
.	.	8a-\	3	.
4d- 4A- 4F\	.	8gn\	2	.
.	.	8a-\	1	.
4d- 4F\	.	8aa-\	.	.
.	.	8a-\J	.	.
=119	=119	=119	=119	=119
4C\	.	8a-L 8g-\	2	.
.	.	8an\	3	.
4c 4A- 4E-\	.	8b- 8g-\	1 2	.
.	.	8gg-\	.	.
4AA-\	.	8cc 8g-\	.	.
.	.	8ee-\J	.	.
=120	=120	=120	=120	=120
4DD-\	.	8dd-L 8f\	.	.
.	.	8a-\	.	.
4d- 4A- 4F 4D-\	.	8dd- 8f\	.	.
.	.	8ff\	.	.
4d- 4A- 4F 4D-\	.	8dd- 8f\	.	.
.	.	8ff\J	.	.
=121	=121	=121	=121	=121
4d- 4A- 4F 4D-\	.	4dd- 4f\	.	.
4r	.	4r	.	.
4r	.	4r	.	.
!!LO:LB:g=original
*kcancel	*	*kcancel	*	*
=122||	=122||	=122||	=122||	=122||
*k[b-]	*	*k[b-]	*	*
8DD-X/L	.	4ff 4bn 4f\	.	f
8D-X/J	.	.	.	.
8E-X\L	.	4.b 4.f\	.	.
8D-\	.	.	.	.
8B-\	.	.	.	.
8A-X\J	.	8ff 8b 8f\	.	.
=123	=123	=123	=123	=123
*	*	*^	*	*
8GL 8C\	.	2.ee 2.cc 2.f\	4ryy	.	.
8c\J	.	.	.	.	.
!LO:TX:a:t=md	!	!	!	!	!
4ryy	.	.	8dn</L	.	.
.	.	.	8c</J	.	.
!	!	!	!LO:TX:a:t=ms	!	!
4cc>\	.	.	4ryy	.	.
*	*	*v	*v	*	*
=124	=124	=124	=124	=124
8DDD-X/L	.	4f< 4Bn< 4F</	.	.
8DD-X/J	.	.	.	.
8EE-X\L	.	4.B< 4.F</	.	.
8DD-\	.	.	.	.
8BB-\	.	.	.	.
8AA-X\J	.	8f< 8B< 8F</	.	.
=125	=125	=125	=125	=125
*	*	*^	*	*
8GGL 8CC\	.	2.e< 2.c< 2.En</	4ryy	.	.
8C\J	.	.	.	.	.
!LO:TX:a:t=md	!	!	!	!	!
2ryy	.	.	8Dn</L	.	.
.	.	.	8C</J	.	.
!LO:TX:a:t=ms	!	!	!	!	!
.	.	.	4c<\	.	.
*	*	*v	*v	*	*
=126	=126	=126	=126	=126
8CCC\L	.	4ryy	.	.
!	!	!	!	!LO:DY:rj:t=f.
8CC\J	.	.	.	f
!LO:TX:a:t=md	!	!	!	!
4ryy	.	8DDn</L	.	.
.	.	8CC</J	.	.
!LO:TX:a:t=ms	!	!	!	!
8AAn\L	.	4ryy	.	.
8GG\J	.	.	.	.
=127	=127	=127	=127	=127
8CC\L	.	4ryy	.	.
8C\J	.	.	.	.
!LO:TX:a:t=md	!	!	!	!
4ryy	.	8D</L	.	.
.	.	8C</J	.	.
!LO:TX:a:t=ms	!	!	!	!
8A\L	.	4ryy	.	.
8G\J	.	.	.	.
=128	=128	=128	=128	=128
8C\L	.	4ryy	.	.
8c\J	.	.	.	.
!	!	!LO:TX:a:t=md	!	!
4ryy	.	8d/L	.	.
.	.	8c/J	.	.
!	!	!LO:TX:a:t=ms	!	!
8a>\L	.	4ryy	.	.
8g>\J	.	.	.	.
!!LO:LB:g=original
=129	=129	=129	=129	=129
!LO:TX:a:t=Dal segno [segno] al segno [segno][segno]\nsenza repetizione	!	!LO:TX:b:t=md	!	!
4ryy	.	8dd/L	.	.
.	.	8cc/J	.	.
!	!	!LO:TX:b:t=ms	!	!
8aa>\L	.	4ryy	.	.
8gg>\J	.	.	.	.
!	!	!LO:TX:b:t=md	!	!
4ryy	.	8ddd/L	.	.
!	!	!LO:TX:t=P:problem=skreślone takty [40]	!	!
.	.	8ccc/J	.	.
!!LO:PB:g=original
=130||	=130||	=130||	=130||	=130||
*>F	*>F	*>F	*>F	*>F
4f 4F\	.	8aaaL 8aa\	.	.
!	!	!LO:TX:b:i:t=con bravura:dur=7e	!	!LO:DY:rj:t=ff.
.	.	8ggg 8gg\	.	ff
4r	.	8fff 8ff\	.	.
.	.	8eee 8ee\	.	.
4r	.	8ddd 8dd\	.	.
.	.	8cccJ 8cc\	.	.
=131	=131	=131	=131	=131
4Bn 4F 4GG\	.	8bbnL 8bn\	.	.
.	.	8aa 8a\	.	.
4r	.	8gg 8g\	.	.
.	.	8ff 8f\	.	.
4r	.	8ee 8e\	.	.
.	.	8ddJ 8d\	.	.
=132	=132	=132	=132	=132
4C 4CC/	.	8ccL 8c\	.	.
.	.	8dd 8d\	.	.
4B-X 4E\	.	8ee 8e\	.	.
.	.	8ff 8f\	.	.
4C\	.	8gg 8g\	.	.
.	.	8gg#XJ 8g#X\	.	.
=133	=133	=133	=133	=133
4FF 4FFF/	.	8aa 8a\	.	.
.	.	8r	.	.
4f 4c\	.	8r	.	.
.	.	16r	.	.
.	.	16ccc 16cc\	.	.
4A\	.	4ccc 4cc\	.	.
=134	=134	=134	=134	=134
4A 4AA\	.	12cccL 12cc\	.	.
.	.	12dd\	.	.
.	.	12b-\J	.	.
4e-X 4c 4F\	.	8a\L	4	.
.	.	8f\	2	.
4F 4FF\	.	8g\	1	.
.	.	8a\J	3	.
=135	=135	=135	=135	=135
4B- 4BB-\	.	4bb- 4b-\	.	.
.	.	8qcc/	.	.
4d 4B-\	.	8b-\L	.	.
.	.	8a\J	.	.
4F\	.	4b-\	.	.
!!LO:LB:g=original
=136	=136	=136	=136	=136
4Bn 4BBn\	.	12dddL 12dd\	.	.
.	.	12ee\	.	.
.	.	12cc\J	.	.
*	*	*	*below	*
4f 4d 4G\	.	8bn\L	4	.
.	.	8g\	2	.
4G 4GG\	.	8a\	1	.
.	.	8b\J	3	.
=137	=137	=137	=137	=137
4c 4C\	.	4ccc 4cc\	.	.
.	.	8qdd/	.	.
4e 4c\	.	8cc\L	.	.
.	.	8bn\J	.	.
4B-\	.	4cc\	.	.
=138	=138	=138	=138	=138
4AA\	.	8cccL 8cc\	.	.
.	.	8ff\	.	.
4f 4c\	.	8ddd 8dd\	.	.
.	.	8cc\	.	.
4A\	.	8aa 8a\	.	.
.	.	8f\J	.	.
=139	=139	=139	=139	=139
4BB-\	.	8ddL 8d\	.	.
.	.	8f\	.	.
4d 4B-\	.	8gg 8g\	.	.
.	.	8b-\	.	.
4G\	.	8eee 8ee\	.	.
.	.	8dd\J	.	.
=140	=140	=140	=140	=140
4AA\	.	8cccL 8cc\	.	.
.	.	8ff\	.	.
4f 4c\	.	8ddd 8dd\	.	.
.	.	8cc\	.	.
4A\	.	8aa 8a\	.	.
.	.	8f\J	.	.
=141	=141	=141	=141	=141
4BB-\	.	8dd-XL 8d-X\	.	.
.	.	8f\	.	.
4d-X 4B-\	.	8gg-X 8g-X\	.	.
.	.	8b-\	.	.
4G-X\	.	8eee-X 8ee-X\	.	.
.	.	8dd-\J	.	.
=142	=142	=142	=142	=142
4AA\	.	8cccL 8cc\	.	.
.	.	8ff\	.	.
4f 4c 4A 4F\	.	8ddd 8dd\	.	.
.	.	8cc\	.	.
4ryy	.	8aa 8a\	.	.
.	.	8f\J	.	.
=143	=143	=143	=143	=143
4D-X 4BB-\	.	8ffL 8f\	.	.
.	.	8b-\	.	.
4B- 4G 4F\	.	8gg 8g\	.	.
.	.	8f\	.	.
4r	.	8dd-X 8d-X\	.	.
.	.	8B-\J	.	.
=144	=144	=144	=144	=144
*	*above	*	*	*
8GGL 8CC\	2	4ee 4e\	.	.
8C\	.	.	.	.
8E\	4	8dd#XL 8d#X\	.	.
8G\	.	8eeJ 8e\	.	.
8B-\	.	4ccc 4cc\	.	.
8c\J	.	.	.	.
!!LO:LB:g=original
=145	=145	=145	=145	=145
2r	.	2r;	.	.
4r	.	4r	.	.
=146||	=146||	=146||	=146||	=146||
*tremolo	*	*	*	*
!	!	!	!	!LO:DY:t=pp.
32FFF\LLL	.	4a< 4c< 4A</	.	pp
32FF\	.	.	.	.
32FFF\	.	.	.	.
32FF\	.	.	.	.
32FFF\	.	.	.	.
32FF\	.	.	.	.
32FFF\	.	.	.	.
32FF\	.	.	.	.
32FFF\	.	4.c< 4.A< 4.C</	.	.
32FF\	.	.	.	.
32FFF\	.	.	.	.
32FF\	.	.	.	.
32FFF\	.	.	.	.
32FF\	.	.	.	.
32FFF\	.	.	.	.
32FF\	.	.	.	.
32FFF\	.	.	.	.
32FF\	.	.	.	.
32FFF\	.	.	.	.
32FF\	.	.	.	.
32FFF\	.	8a< 8c< 8A</	.	.
32FF\	.	.	.	.
32FFF\	.	.	.	.
32FF\JJJ	.	.	.	.
=147	=147	=147	=147	=147
32FF\LLL	.	2.a< 2.c< 2.A</	.	.
32F\	.	.	.	.
32FF\	.	.	.	.
32F\	.	.	.	.
32FF\	.	.	.	.
32F\	.	.	.	.
32FF\	.	.	.	.
32F\	.	.	.	.
32FF\	.	.	.	.
32F\	.	.	.	.
32FF\	.	.	.	.
32F\	.	.	.	.
32FF\	.	.	.	.
32F\	.	.	.	.
32FF\	.	.	.	.
32F\	.	.	.	.
32FF\	.	.	.	.
32F\	.	.	.	.
32FF\	.	.	.	.
32F\	.	.	.	.
32FF\	.	.	.	.
32F\	.	.	.	.
32FF\	.	.	.	.
32F\JJJ	.	.	.	.
=148	=148	=148	=148	=148
!LO:TX:b:t=P:problem=tremolo bez kropek	!	!	!	!
32DD-XLLL 32FFF\	.	4a< 4d-X< 4A</	.	.
32FF\	.	.	.	.
32DD- 32FFF\	.	.	.	.
32FF\	.	.	.	.
32DD- 32FFF\	.	.	.	.
32FF\	.	.	.	.
32DD- 32FFF\	.	.	.	.
32FF\	.	.	.	.
32DD- 32FFF\	.	4.g< 4.d-< 4.G</	.	.
32FF\	.	.	.	.
32DD- 32FFF\	.	.	.	.
32FF\	.	.	.	.
32DD- 32FFF\	.	.	.	.
32FF\	.	.	.	.
32DD- 32FFF\	.	.	.	.
32FF\	.	.	.	.
32DD- 32FFF\	.	.	.	.
32FF\	.	.	.	.
32DD- 32FFF\	.	.	.	.
32FF\	.	.	.	.
!	!	!LO:TX:b:t=P:problem=a dopisane ołówkiem	!	!
32DD- 32FFF\	.	8a< 8d-< 8A</	.	.
32FF\	.	.	.	.
32DD- 32FFF\	.	.	.	.
32FF\JJJ	.	.	.	.
=149	=149	=149	=149	=149
32D-XLLL 32FF\	.	2.b- 2.d-X 2.B-\	.	.
32F\	.	.	.	.
32D- 32FF\	.	.	.	.
32F\	.	.	.	.
32D- 32FF\	.	.	.	.
32F\	.	.	.	.
32D- 32FF\	.	.	.	.
32F\	.	.	.	.
32D- 32FF\	.	.	.	.
32F\	.	.	.	.
32D- 32FF\	.	.	.	.
32F\	.	.	.	.
32D- 32FF\	.	.	.	.
32F\	.	.	.	.
32D- 32FF\	.	.	.	.
32F\	.	.	.	.
32D- 32FF\	.	.	.	.
32F\	.	.	.	.
32D- 32FF\	.	.	.	.
32F\	.	.	.	.
32D- 32FF\	.	.	.	.
32F\	.	.	.	.
32D- 32FF\	.	.	.	.
32F\JJJ	.	.	.	.
=150	=150	=150	=150	=150
32FFF\LLL	.	4bn 4dn 4Bn\	.	.
32FF\	.	.	.	.
32FFF\	.	.	.	.
32FF\	.	.	.	.
32FFF\	.	.	.	.
32FF\	.	.	.	.
32FFF\	.	.	.	.
32FF\	.	.	.	.
32FFF\	.	4.d< 4.Bn< 4.D</	.	.
32FF\	.	.	.	.
32FFF\	.	.	.	.
32FF\	.	.	.	.
32FFF\	.	.	.	.
32FF\	.	.	.	.
32FFF\	.	.	.	.
32FF\	.	.	.	.
32FFF\	.	.	.	.
32FF\	.	.	.	.
32FFF\	.	.	.	.
32FF\	.	.	.	.
32FFF\	.	8b 8d 8B\	.	.
32FF\	.	.	.	.
32FFF\	.	.	.	.
32FF\JJJ	.	.	.	.
=151	=151	=151	=151	=151
32FF\LLL	.	2.bn 2.d 2.Bn\	.	.
32F\	.	.	.	.
32FF\	.	.	.	.
32F\	.	.	.	.
32FF\	.	.	.	.
32F\	.	.	.	.
32FF\	.	.	.	.
32F\	.	.	.	.
32FF\	.	.	.	.
32F\	.	.	.	.
32FF\	.	.	.	.
32F\	.	.	.	.
32FF\	.	.	.	.
32F\	.	.	.	.
32FF\	.	.	.	.
32F\	.	.	.	.
32FF\	.	.	.	.
32F\	.	.	.	.
32FF\	.	.	.	.
32F\	.	.	.	.
32FF\	.	.	.	.
32F\	.	.	.	.
32FF\	.	.	.	.
32F\JJJ	.	.	.	.
=152	=152	=152	=152	=152
32FFF\LLL	.	4bn 4d 4Bn\	.	.
32FF\	.	.	.	.
32FFF\	.	.	.	.
32FF\	.	.	.	.
32FFF\	.	.	.	.
32FF\	.	.	.	.
32FFF\	.	.	.	.
32FF\	.	.	.	.
32FFF\	.	4.a 4.d 4.A\	.	.
32FF\	.	.	.	.
32FFF\	.	.	.	.
32FF\	.	.	.	.
32FFF\	.	.	.	.
32FF\	.	.	.	.
32FFF\	.	.	.	.
32FF\	.	.	.	.
32FFF\	.	.	.	.
32FF\	.	.	.	.
32FFF\	.	.	.	.
32FF\	.	.	.	.
32FFF\	.	8b 8B\	.	.
32FF\	.	.	.	.
32FFF\	.	.	.	.
32FF\JJJ	.	.	.	.
=153	=153	=153	=153	=153
32BB-LLL 32FF\	.	2.cc 2.e 2.c\	.	.
32F\	.	.	.	.
32BB- 32FF\	.	.	.	.
32F\	.	.	.	.
32BB- 32FF\	.	.	.	.
32F\	.	.	.	.
32BB- 32FF\	.	.	.	.
32F\	.	.	.	.
32BB- 32FF\	.	.	.	.
32F\	.	.	.	.
32BB- 32FF\	.	.	.	.
32F\	.	.	.	.
32BB- 32FF\	.	.	.	.
32F\	.	.	.	.
32BB- 32FF\	.	.	.	.
32F\	.	.	.	.
32BB- 32FF\	.	.	.	.
32F\	.	.	.	.
32BB- 32FF\	.	.	.	.
32F\	.	.	.	.
32BB- 32FF\	.	.	.	.
32F\	.	.	.	.
32BB- 32FF\	.	.	.	.
32F\JJJ	.	.	.	.
*Xtremolo	*	*	*	*
!!LO:LB:g=original
=154	=154	=154	=154	=154
!	!	!LO:TX:Bi:t=cresc_:problem=dynamics with extention lines	!	!LO:HP:t=cresc_
8CCL 8FFF/	.	4aa 4cc 4a\	.	<
8FF/	.	.	.	.
8C 8AA 8FF/	.	4.cc 4.a 4.c\	.	.
8F/	.	.	.	.
8c 8F/	.	.	.	.
8f/J	.	8aa 8cc 8a\	.	.
=155	=155	=155	=155	=155
8f\L	.	2.aa 2.cc 2.a\	.	.
8c 8F\	.	.	.	.
8F\	.	.	.	.
8CJ 8FF\	.	.	.	.
8FF/L	.	.	.	.
8CCJ 8CCC/	.	.	.	.
=156	=156	=156	=156	=156
8DD-XL 8FFF/	.	4aa 4dd-X 4a\	.	.
8FF/	.	.	.	.
8D-X 8FF/	.	4.gg 4.dd- 4.g\	.	.
8F/	.	.	.	.
8d-X 8F/	.	.	.	.
8f/J	.	8aa 8dd- 8a\	.	.
=157	=157	=157	=157	=157
8f\L	.	2.bb- 2.dd-X 2.b-\	.	.
8d-X 8F\	.	.	.	.
8F\	.	.	.	.
8D-X 8FF\	.	.	.	.
8FF\	.	.	.	.
8DD-XJ 8FFF\	.	.	.	.
=158	=158	=158	=158	=158
8DDnL 8FFF/	.	4bbn 4ddn 4bn\	.	.
8FF/	.	.	.	.
8Dn 8FF/	.	4.dd 4.b 4.d\	.	.
8F/	.	.	.	.
8d 8F/	.	.	.	.
8f/J	.	8bb 8dd 8b\	.	.
=159	=159	=159	=159	=159
8f/L	.	2.bbn 2.dd 2.bn\	.	.
8d 8F/	.	.	.	.
8F/	.	.	.	.
8D 8FF/	.	.	.	.
8FF/	.	.	.	.
8DDJ 8FFF/	.	.	.	.
=160	=160	=160	=160	=160
8DDL 8FFF/	.	4bbn 4dd 4bn\	.	.
8FF/	.	.	.	.
8D 8FF/	.	4.aa 4.a\	.	.
8F/	.	.	.	.
8d 8F/	.	.	.	.
8f/J	.	8bb 8b\	.	.
=161	=161	=161	=161	=161
8f\L	.	2.ccc 2.ee 2.cc\	.	[[
8d 8F\	.	.	.	.
8F\	.	.	.	.
8BB-J 8FF\	.	.	.	.
8FF/L	.	.	.	.
8BBB-J 8FFF/	.	.	.	.
!!LO:LB:g=original
=162	=162	=162	=162	=162
!	!	!LO:TX:t=P:problem=obiegnik dopisany ołówkiem	!	!LO:DY:t=mez f.
4FF 4FFF/	.	8cccL 8ff\	.	mf
.	.	8ddd 8ff\	.	.
4a 4f 4c 4A\	.	8eee 8ff\	.	.
.	.	8fff 8ff\	.	.
4a 4f 4c 4A\	.	8ccc 8ff\	.	.
.	.	8dddJ 8ff\	.	.
=163	=163	=163	=163	=163
4F 4FF\	.	8eeeL 8ff\	.	.
.	.	8fff 8ff\	.	.
4a 4f 4c 4A\	.	8ccc 8ff\	.	.
.	.	8ddd 8ff\	.	.
4a 4f 4c 4A\	.	8eee 8ff\	.	.
.	.	8fffJ 8ff\	.	.
=164	=164	=164	=164	=164
!	!	!LO:TX:b:i:t=non legato:dur=3q	!	!
4B- 4BB-\	.	8cc#X\L	.	.
.	.	8dd\	.	.
*clefG2	*	*	*	*
4g 4d 4B- 4G/	.	8gg\	.	.
.	.	8bb-\	.	.
4g 4d 4B- 4G/	.	8ddd 8dd\	.	.
.	.	8ccc#X\J	.	.
*clefF4	*	*	*	*
=165	=165	=165	=165	=165
*	*	*	*above	*
4G 4GG\	.	8eeeL 8dd\	3	.
.	.	8ddd\	4	.
*clefG2	*	*	*	*
4g 4d 4B- 4G/	.	8bb-\	.	.
.	.	8gg\	.	.
4g 4d 4B- 4G/	.	8ee\	.	.
.	.	8dd\J	.	.
*clefF4	*	*	*	*
=166	=166	=166	=166	=166
4C 4CC\	.	8bn\L	2	.
.	.	8cc\	1	.
4a 4f 4c 4A\	.	8ff\	.	.
.	.	8aa\	.	.
4a 4f 4c 4A\	.	8ccc 8cc\	.	.
.	.	8bbn\J	.	.
=167	=167	=167	=167	=167
4C\	.	8dddL 8cc\	.	.
.	.	8ccc\	.	.
4a 4f 4c 4A\	.	8aa\	.	.
.	.	8ff\	.	.
4a 4f 4c 4A\	.	8dd\	.	.
.	.	8cc\J	.	.
=168	=168	=168	=168	=168
4C 4CC\	.	8f#X\L	.	.
.	.	8g\	.	.
4e 4c 4B- 4G\	.	8cc\	.	.
.	.	8ee\	.	.
4e 4c 4B- 4G\	.	8gg 8g\	.	.
.	.	8ff#X\J	.	.
=169	=169	=169	=169	=169
4C\	.	8aaL 8g\	.	.
.	.	8gg\	.	.
4e 4c 4B- 4G\	.	8ee\	.	.
.	.	8cc\	.	.
4e 4c 4B- 4G\	.	8a\	.	.
.	.	8g\J	.	.
!!LO:LB:g=original
=170	=170	=170	=170	=170
!	!	!LO:TX:Bi:t=cresc_ e accelerando poco a poco:problem=dynamics with extention lines	!	!LO:HP:t=cresc_ e accelerando poco a poco
4FF\	.	8ddL 8f\	.	<
.	.	8dd\	.	.
4A 4F\	.	8ee-X\	.	.
.	.	8ff\	.	.
4e 4A 4F\	.	8cc 8f\	.	.
.	.	8d\J	.	.
=171	=171	=171	=171	=171
4AA\	.	8ee-X\L	.	.
.	.	8ff\	.	.
4e-X 4A 4F\	.	8cc 8f\	.	.
.	.	8dd\	.	.
4A 4F\	.	8ee-\	.	.
.	.	8ff\J	.	.
=172	=172	=172	=172	=172
4BBB-\	.	8c#X\L	.	.
.	.	8d\	.	.
4B- 4G 4D\	.	8g\	.	.
.	.	8b-\	.	.
4B- 4G 4D\	.	8dd 8d\	.	.
.	.	8cc#X\J	.	.
=173	=173	=173	=173	=173
4BB-\	.	8eeL 8d\	.	.
.	.	8dd\	.	.
4B- 4G 4D\	.	8b-\	.	.
.	.	8g\	.	.
4B- 4G 4D\	.	8e\	.	.
.	.	8d\J	.	.
=174	=174	=174	=174	=174
4CC\	.	8Bn\L	.	.
.	.	8c\	1	.
4A 4F 4C\	.	8f\	.	.
.	.	8a\	.	.
4A 4F 4C\	.	8cc 8c\	.	.
.	.	8bn\J	.	.
=175	=175	=175	=175	=175
4AA\	.	8ddL 8c\	.	.
.	.	8cc\	.	.
4A 4F 4C\	.	8a\	.	.
.	.	8f\	.	[
4A 4F 4C\	.	8d\	.	.
.	.	8c\J	.	.
=176	=176	=176	=176	=176
4CC\	.	8F#X</L	.	.
.	.	8G</	.	.
4E 4C 4BB-\	.	8c</	.	.
.	.	8e</	.	.
4E 4C 4BB-\	.	8g< 8G</	.	.
.	.	8f#X</J	.	.
=177	=177	=177	=177	=177
4GG\	.	8a<L 8F</	.	.
.	.	8g</	.	.
4E 4C 4BB-\	.	8e</	.	.
.	.	8c</	.	.
4E 4C 4BB-\	.	8A</	.	.
.	.	8G</J	.	.
!!LO:PB:g=original
=178	=178	=178	=178	=178
*	*below	*	*	*
8CL 8FF\	5 3	8fL 8c 8A/	.	.
!	!	!	!	!LO:DY:rj:t=f.
8F\	.	8Bn/J	.	f
!	!	!LO:TX:b:i:t=con energia	!	!
8E-X\	.	2f 2c 2A/	.	.
8C\	.	.	.	.
*	*above	*	*	*
8AA\	1	.	.	.
8FF\J	.	.	.	.
=179	=179	=179	=179	=179
*	*	*	*below	*
8FFL 8BBB-/	.	8g-XL 8d-X 8B-/	1	.
8BB-/	.	8c/J	.	.
8GG-X/	.	2g- 2d- 2B-/	.	.
8FF/	.	.	.	.
8DD-X/	.	.	.	.
8BBB-/J	.	.	.	.
=180	=180	=180	=180	=180
8GGGL 8CCC\	.	8e<L 8c< 8G</	.	.
8CC\	.	8C</	.	.
8EE\	.	8C</	.	.
8GG\	.	8E</	.	.
8BB-\	.	8A</	.	.
8C\J	.	8G</J	.	.
=181	=181	=181	=181	=181
8GGL 8CC\	.	8ccL 8e\	.	.
8C\	.	8c\	.	.
8E\	.	8c\	.	.
8G\	.	8e\	.	.
8B-\	.	8a\	.	.
8c\J	.	8g\J	.	.
=182	=182	=182	=182	=182
8cL 8F\	.	8ffL 8cc 8a\	1	.
8f\	.	8bn\J	.	.
8e-X\	.	2ff 2cc 2a\	.	.
8c\	3	.	.	.
8A\	1	.	.	.
8F\J	.	.	.	.
=183	=183	=183	=183	=183
8FL 8BB-\	.	8gg-XL 8dd-X 8b-\	.	.
8B-\	.	8cc\J	.	.
8G-X\	.	2gg- 2dd- 2b-\	.	.
8F\	.	.	.	.
8D-X\	.	.	.	.
8BB-\J	.	.	.	.
=184	=184	=184	=184	=184
8GGL 8CC\	.	8eeL 8cc 8g\	.	.
8C\	.	8c\	.	.
8E\	.	8c\	.	.
8G\	.	8e\	.	.
8B-\	.	8a\	.	.
8c\J	.	8g\J	.	.
!!LO:LB:g=original
=185	=185	=185	=185	=185
8GL 8C\	.	8cccL 8ee\	.	.
8c\J	.	8cc\	.	.
*clefG2	*	*	*	*
8e/L	.	8cc\	.	.
8g/	.	8ee\	.	.
8b-/	.	8aa\	.	.
8cc/J	.	8gg\J	.	.
*clefF4	*	*	*	*
=186	=186	=186	=186	=186
4F\	.	8fffL 8aa\	.	.
.	.	8ff\	.	p
*clefG2	*	*	*	*
4cc 4a 4f/	.	8ff\	.	<
.	.	8aa\	.	.
4c/	.	8ddd\	.	.
.	.	8ccc\J	.	.
*clefF4	*	*	*	*
=187	=187	=187	=187	=187
4C\	.	8cccL 8ee\	.	.
.	.	8cc\	.	.
*clefG2	*	*	*	*
4b- 4e/	.	8cc\	.	.
.	.	8ee\	.	.
4B-/	.	8aa\	.	.
.	.	8gg\J	.	.
*clefF4	*	*	*	*
=188	=188	=188	=188	=188
4FF\	.	8ffL 8a\	.	.
.	.	8f\	.	.
4c 4A 4F\	.	8f\	.	.
.	.	8a\	.	.
4C\	.	8dd\	.	.
.	.	8cc\J	.	[[
=189	=189	=189	=189	=189
4CC/	.	8ccL 8e\	.	.
.	.	8c\	.	.
4B- 4E\	.	8c\	.	.
.	.	8e\	.	.
4BB-\	.	8a\	.	.
.	.	8g\J	.	.
=190	=190	=190	=190	=190
4CC 4FFF\	.	8C<L 8AA< 8FF</	.	.
!	!	!	!	!LO:DY:rj:t=f&colon;
.	.	8F</J	.	f
2ryy	.	8D-X<\L	1	.
.	.	8C<\	.	.
.	.	8AA<\	.	.
.	.	8FF<\J	.	.
=191	=191	=191	=191	=191
4C 4FF\	.	8c<L 8A< 8F</	.	.
.	.	8f</J	.	.
2ryy	.	8d-X<\L	.	.
.	.	8c<\	.	.
.	.	8A<\	.	.
.	.	8F<\J	.	.
=192	=192	=192	=192	=192
*	*	*^	*	*
4c 4F\	.	8cc/L	4cc 4a 4f\	.	.
.	.	8ff/J	.	.	.
2ryy	.	8dd-X\L	2ryy	.	.
.	.	8cc\	.	.	.
.	.	8a\	.	.	.
.	.	8f\J	.	.	.
*	*	*v	*v	*	*
!!LO:LB:g=original
=193	=193	=193	=193	=193
4cc> 4f>\	.	8cccL 8aa 8ff/	.	.
.	.	8fff/J	.	.
!	!	!LO:TX:b:t=molto acceler._:dur=12q:ext=cd:problem=text with extention lines	!	!
2ryy	.	8ddd-X\L	.	.
.	.	8ccc\	.	.
.	.	8aa\	.	.
.	.	8ff\J	.	.
=194	=194	=194	=194	=194
*	*	*8va	*	*
4cc> 4f>\	.	4ffff 4cccc 4aaa 4fff/	.	.
*	*	*X8va	*	*
!	!	!LO:TX:a:t=loco	!	!
2ryy	.	4r	.	.
.	.	4r	.	.
=195	=195	=195	=195	=195
4e 4B- 4C\	.	4ccc 4gg 4cc\	.	.
4r	.	4r	.	.
4r	.	4r	.	.
=196	=196	=196	=196	=196
4f 4c 4F\	.	4aa 4ff 4cc 4a\	.	.
4r	.	4r	.	.
4r	.	4r	.	.
=197	=197	=197	=197	=197
4E 4BB- 4CC\	.	4cc 4g 4c\	.	.
4r	.	4r	.	.
4r	.	4r	.	.
=198	=198	=198	=198	=198
4FF 4FFF/	.	4f 4F\	.	.
4r	.	4r	.	.
4r	.	4r	.	.
=199	=199	=199	=199	=199
8qF\	.	.	.	.
*	*	*8va	*	*
4a 4f 4c 4A\	.	4aaa 4fff 4ccc 4aa\	.	.
*	*	*X8va	*	*
4r	.	4r	.	.
4r	.	4r	.	.
=200	=200	=200	=200	=200
!	!	!LO:TX:b:t=Fine.	!	!
8qF 8qC 8qFF\	.	8qf 8qc 8qA/	.	.
2.F 2.C 2.FF\	.	2.f 2.c 2.A;/	.	.
==	==	==	==	==
*-	*-	*-	*-	*-
!!!system-decoration: {(s1,s2)}
!!!RDF**kern: > = above
!!!RDF**kern: < = below
!!!ENC: Andrzej Kubiczek
!!!END: 2021-05-30
!!!ENC: Tomasz Grochalski
!!!END: 2021-05-10
